build/category/WorkOutline.svg

<svg xmlns="http://www.w3.org/2000/svg" fill="none" viewBox="0 0 24 24" focusable="false"><path d="M0 0H24V24H0z"/><path fill="#74767B" fill-rule="evenodd" d="M8.34986 5.66563C8.34986 4.20207 9.53631 3.01562 10.9999 3.01562L12.9999 3.01562C14.4634 3.01562 15.6499 4.20207 15.6499 5.66563C15.6499 6.02461 15.3588 6.31563 14.9999 6.31563C14.6409 6.31563 14.3499 6.02461 14.3499 5.66563C14.3499 4.92004 13.7454 4.31563 12.9999 4.31563L10.9999 4.31563C10.2543 4.31563 9.64986 4.92004 9.64986 5.66563C9.64986 6.02461 9.35885 6.31563 8.99986 6.31563C8.64088 6.31563 8.34986 6.02461 8.34986 5.66563ZM5.99512 7.46684C4.33512 7.46684 2.99512 8.80684 2.99512 10.4668L2.99512 16.9989C2.99512 18.6589 4.33512 19.9989 5.99512 19.9989L17.9991 19.9989C19.6591 19.9989 20.9991 18.6589 20.9991 16.9989L20.9991 10.4668C20.9991 8.80683 19.6491 7.46683 17.9991 7.46683L5.99512 7.46684ZM17.9991 8.76683C18.9391 8.76683 19.6991 9.52683 19.6991 10.4668L19.6991 11.6471L19.6975 11.6471L19.6975 12.215C19.6975 12.6547 19.535 13.0789 19.2411 13.406C18.9031 13.7822 18.4212 13.9971 17.9155 13.9971L6.09057 13.9971C5.58098 13.9971 5.09542 13.7804 4.75502 13.4012C4.45942 13.0719 4.29592 12.6449 4.29592 12.2024L4.29512 11.6387L4.29512 10.4668C4.29512 9.52684 5.05512 8.76684 5.99512 8.76684L17.9991 8.76683ZM17.9155 15.2971C18.5601 15.2971 19.1824 15.0952 19.6991 14.7286L19.6991 16.9989C19.6991 17.9389 18.9391 18.6989 17.9991 18.6989L5.99512 18.6989C5.05512 18.6989 4.29512 17.9389 4.29512 16.9989L4.29512 14.723C4.81484 15.0932 5.4414 15.2971 6.09057 15.2971L7.34986 15.2971L7.34986 16.7631C7.34986 17.1221 7.64088 17.4131 7.99986 17.4131C8.35885 17.4131 8.64986 17.1221 8.64986 16.7631L8.64986 15.2971L15.3499 15.2971L15.3499 16.7615C15.3499 17.1204 15.6409 17.4115 15.9999 17.4115C16.3588 17.4115 16.6499 17.1204 16.6499 16.7615L16.6499 15.2971L17.9155 15.2971Z"/></svg>

<svg xmlns="http://www.w3.org/2000/svg" fill="none" viewBox="0 0 24 24" focusable="false"><path fill="#74767B" fill-rule="evenodd" d="M11 3.01c-1.47 0-2.65 1.19-2.65 2.65 0 .36.29.65.65.65.35 0 .64-.29.64-.65 0-.74.61-1.35 1.36-1.35h2c.74 0 1.35.61 1.35 1.35 0 .36.29.65.65.65.35 0 .64-.29.64-.65 0-1.46-1.18-2.65-2.64-2.65zM5.99 7.46c-1.66 0-3 1.34-3 3v6.53c0 1.66 1.34 3 3 3h12c1.66 0 3-1.34 3-3v-6.53c0-1.66-1.35-3-3-3zm12 1.3c.94 0 1.7.76 1.7 1.7v1.75c0 .44-.16.86-.45 1.19-.34.38-.82.59-1.33.59H6.09a1.783 1.783 0 0 1-1.8-1.79v-1.74c0-.94.76-1.7 1.7-1.7zm-.08 6.53c.65 0 1.27-.2 1.78-.57v2.27c0 .94-.76 1.7-1.7 1.7h-12c-.94 0-1.7-.76-1.7-1.7v-2.27c.52.37 1.15.57 1.8.57h1.26v1.47c0 .36.29.65.65.65.35 0 .64-.29.64-.65v-1.47h6.71v1.47c0 .36.29.65.65.65.35 0 .64-.29.64-.65v-1.47z"/></svg>
